resources/haticons/SVG/feed.svg

<!-- Generated by IcoMoon.io -->
<svg version="1.1" xmlns="http://www.w3.org/2000/svg" width="24" height="24" viewBox="0 0 24 24">
<title>feed</title>
<path d="M9 12c0-1.657 1.343-3 3-3s3 1.343 3 3c0 1.657-1.343 3-3 3s-3-1.343-3-3zM15.571 5.403c2.34 1.269 3.929 3.748 3.929 6.597s-1.589 5.328-3.929 6.597c1.033-1.644 1.679-3.991 1.679-6.597s-0.647-4.953-1.679-6.597zM6.75 12c0 2.606 0.646 4.953 1.679 6.597-2.34-1.269-3.929-3.748-3.929-6.597s1.589-5.328 3.929-6.597c-1.033 1.644-1.679 3.991-1.679 6.597zM2.25 12c0 4.029 1.275 7.645 3.297 10.118-3.335-2.132-5.547-5.867-5.547-10.118s2.211-7.987 5.547-10.118c-2.021 2.474-3.297 6.090-3.297 10.118zM18.454 1.882c3.335 2.132 5.546 5.867 5.546 10.118s-2.211 7.987-5.546 10.118c2.021-2.474 3.296-6.090 3.296-10.118s-1.275-7.645-3.296-10.118z"></path>
</svg>

<svg xmlns="http://www.w3.org/2000/svg" width="24" height="24"><path d="M9 12a3 3 0 1 1 6 0 3 3 0 0 1-6 0zm6.571-6.597C17.911 6.672 19.5 9.151 19.5 12s-1.589 5.328-3.929 6.597c1.033-1.644 1.679-3.991 1.679-6.597s-.647-4.953-1.679-6.597zM6.75 12c0 2.606.646 4.953 1.679 6.597C6.089 17.328 4.5 14.849 4.5 12s1.589-5.328 3.929-6.597C7.396 7.047 6.75 9.394 6.75 12zm-4.5 0c0 4.029 1.275 7.645 3.297 10.118C2.212 19.986 0 16.251 0 12S2.211 4.013 5.547 1.882C3.526 4.356 2.25 7.972 2.25 12zM18.454 1.882C21.789 4.014 24 7.749 24 12s-2.211 7.987-5.546 10.118c2.021-2.474 3.296-6.09 3.296-10.118s-1.275-7.645-3.296-10.118z"/></svg>
